<?xml version="1.0" encoding="UTF-8"?>
<map version="1.10" tiledversion="1.11.2" orientation="orthogonal" renderorder="right-down" width="15" height="11" tilewidth="32" tileheight="32" infinite="0" nextlayerid="4" nextobjectid="1">
 <editorsettings>
  <export target="../../../../../Downloads/6-pokemon-main/6-pokemon-main/src/pokemon-1/config/map.json" format="json"/>
 </editorsettings>
 <tileset firstgid="1" source="../../../../../Downloads/6-pokemon-main/6-pokemon-main/src/pokemon-1/assets/maps/tileset.tsx"/>
 <layer id="1" name="Bottom" width="15" height="11" locked="1">
  <data encoding="csv">
6,1158,1159,1160,3,2,2,5,6,6,6,3,5,4,6,
5,1158,1159,1160,4,3,3,4,2,5,6,6,3,3,2,
3,1158,1159,1160,4,5,6,3,2,6,3,2,5,4,4,
5,1158,1159,1160,6,3,5,3,4,3,6,4,5,2,6,
5,1158,1159,1160,2,5,5,4,4,1158,1159,1160,2,6,5,
2,1158,1159,1160,4,2,6,6,4,1158,1159,1160,4,5,5,
5,1158,1159,1160,5,4,5,6,1158,1159,1160,1160,4,4,2,
2,1158,1159,1160,5,1158,1159,1160,1160,1159,1158,1159,1158,1159,1160,
5,1158,1159,1160,4,3,2,5,1158,1158,1159,1160,4,4,2,
4,1158,1159,1160,6,2,2,4,4,1158,1159,1160,3,2,4,
6,1158,1159,1160,1158,1159,1160,1160,1159,1160,1159,1160,5,5,3
</data>
 </layer>
 <layer id="2" name="Collision" width="15" height="11">
  <data encoding="csv">
0,0,0,0,0,0,0,0,998,998,998,998,998,998,998,
0,0,0,0,0,0,949,949,998,0,0,0,0,0,998,
1041,0,0,0,1044,0,949,949,998,0,0,0,0,0,998,
998,0,0,0,0,0,0,0,998,1393,1394,1395,1396,1397,998,
1041,0,0,0,1044,0,0,0,0,971,0,0,975,0,0,
998,0,0,0,0,0,0,0,0,0,0,0,0,0,0,
1041,0,0,0,1044,0,553,554,555,0,0,0,553,554,555,
998,0,0,0,0,0,0,0,0,0,0,0,0,0,0,
1041,0,0,0,1044,0,0,0,0,0,0,0,0,0,0,
998,0,0,0,0,0,556,557,558,0,0,0,553,554,555,
1041,0,0,0,0,0,0,0,0,0,0,0,0,0,0
</data>
 </layer>
 <layer id="3" name="Top" width="15" height="11" locked="1">
  <data encoding="csv">
1025,1026,0,1027,1028,0,0,0,0,1369,1370,1371,1372,1373,0,
1033,0,0,0,1036,0,0,0,0,1377,1378,1379,1380,1381,0,
1025,1026,0,1027,1028,0,0,0,0,1385,1386,1387,1388,1389,0,
1033,0,0,0,1036,0,0,533,0,963,0,0,967,533,0,
1025,1026,0,1027,1028,0,540,541,542,0,0,0,540,541,542,
1033,0,0,0,1036,0,548,549,550,0,0,0,548,549,550,
1025,1026,0,1027,1028,0,0,533,0,0,0,0,0,533,0,
1033,0,0,0,1036,0,540,541,542,0,0,0,540,541,542,
1025,1026,0,0,0,0,548,549,550,0,0,0,548,549,550,
1033,0,0,0,0,0,0,0,0,0,0,0,0,0,0,
0,0,0,0,0,0,0,0,0,0,0,0,0,0,0
</data>
 </layer>
</map>
